{ "compressionlevel":-1,
 "height":5,
 "infinite":false,
 "layers":[
        {
         "data":[0, 0, 0, 0, 0, 0, 0, 0, 0, 0,
            0, 0, 0, 73, 0, 0, 0, 0, 0, 0,
            0, 0, 0, 0, 0, 0, 0, 0, 0, 0,
            2, 2, 2, 2, 2, 2, 2, 2, 2, 2,
            19, 19, 19, 19, 24, 25, 19, 19, 19, 19],
         "height":5,
         "id":1,
         "name":"Main",
         "opacity":1,
         "type":"tilelayer",
         "visible":true,
         "width":10,
         "x":0,
         "y":0
        }, 
        {
         "draworder":"topdown",
         "id":2,
         "name":"Collision",
         "objects":[
                {
                 "height":30.9178743961353,
                 "id":2,
                 "name":"",
                 "rotation":0,
                 "type":"",
                 "visible":true,
                 "width":29.8330366980253,
                 "x":96.5505551317908,
                 "y":32.0027120942453
                }],
         "opacity":1,
         "type":"objectgroup",
         "visible":true,
         "x":0,
         "y":0
        }],
 "nextlayerid":3,
 "nextobjectid":3,
 "orientation":"orthogonal",
 "renderorder":"right-down",
 "tiledversion":"1.11.2",
 "tileheight":32,
 "tilesets":[
        {
         "firstgid":1,
         "source":"terrain_32x32.tsj"
        }],
 "tilewidth":32,
 "type":"map",
 "version":"1.10",
 "width":10
}